X:200
T:Copenhagen Waltz,3voices. JGi.200
M:3/8
L:1/8
Q:3/8=40
S:Joshua Gibbons MS,1823,Tealby,Lincs.
R:waltz
C:’In 3 parts’
O:Tealby,Lincolnshire
Z:VMP/R.Greig, 2009
K:C
[V:1]|:e/<g/|f/<a/ e/<g/ d/<f/|e/<g/ c e/<g/|d/<f/ G B/<d/|c/<e/ G e/<g/|
[V:2]|:G|A G F|E2E|D2D|E2G|
[V:3]|:G,,|F, E, D, |C,2C,|G,,2G,,|C,2E,|
[V:1]f/<a/ e/<g/ d/<f/|e/<g/ c e/<g/|d/<f/ G B/<d/|c2:|
[V:2]A G F|E2E|D2D|E2:|
[V:3]F, E, D, |C,2C,|G,,2G,,|C,2:|
[V:1]|:e/<g/|d/<f/ G B/<d/|c/<e/ G e/<g/|d/<f/ G B/<d/|c/<e/ G e/<g/|
[V:2]|:E|D2D|E2E|D2D|E2E|
[V:1]f/<a/ e/<g/ d/<f/|e/<g/ c e/<g/|d/<f/ G B/<d/|c2:|
[V:3]|:C,|G,,2G,,|C,2C,|G,2G,|C2C|
[V:2]A G F|E2E|D D D |A2:|
[V:3]F, E, D,|C,2C,|G,2G,,|C,2:|
[V:1]|:g|age|c2g|age|d2g|
[V:2]|:e|fec|EG c/e/|fec|B2e|
[V:3]|:z|C,CC|C C C|C,CC|G,2z|
[V:1]age|c/B/c/e/g/e/|d/c/d/e/f/d/|c2:|
[V:2]fec/B/|E/G/E/G/E/G/|F/G/F/G/F/G/|E2:|
[V:3]C,CC|C,CC|G,G,G,,|C,2:|

